packages/core/src/svgs/tokens/branded/SWISE.svg

<svg width="24" height="24" viewBox="0 0 24 24" fill="none" xmlns="http://www.w3.org/2000/svg">
<path d="M3.6665 17.7778L12.0053 22V13.7167L3.6665 17.7723V17.7778Z" fill="url(#paint0_linear_364_13889)"/>
<path d="M12.0056 22L20.3334 17.7944L12.0056 13.7167V22Z" fill="url(#paint1_linear_364_13889)"/>
<path d="M12.0057 13.7167L20.3335 17.7945L16.9336 11.3278L12.0002 13.7223L12.0057 13.7167Z" fill="url(#paint2_linear_364_13889)"/>
<path d="M3.6665 17.7778L12.0053 13.7166L7.08873 11.3167L3.6665 17.7778Z" fill="url(#paint3_linear_364_13889)"/>
<path d="M7.0893 11.3167L12.0005 13.7167V2L7.08374 11.3167H7.0893Z" fill="url(#paint4_linear_364_13889)"/>
<path d="M12.0057 13.7167L16.9336 11.3277L12.0002 2V13.7223L12.0057 13.7167Z" fill="url(#paint5_linear_364_13889)"/>
<defs>
<linearGradient id="paint0_linear_364_13889" x1="7.18638" y1="4.05232" x2="25.334" y2="11.6764" gradientUnits="userSpaceOnUse">
<stop stop-color="#8277A6"/>
<stop offset="1" stop-color="#655880"/>
</linearGradient>
<linearGradient id="paint1_linear_364_13889" x1="2.3659" y1="23.8511" x2="17.9933" y2="4.72608" gradientUnits="userSpaceOnUse">
<stop stop-color="#665A82"/>
<stop offset="0.24" stop-color="#73638D"/>
<stop offset="1" stop-color="#B4A6D1"/>
</linearGradient>
<linearGradient id="paint2_linear_364_13889" x1="11.6114" y1="16.3643" x2="30.6382" y2="2.69439" gradientUnits="userSpaceOnUse">
<stop stop-color="#B0A0CE"/>
<stop offset="1" stop-color="#CEC6E2"/>
</linearGradient>
<linearGradient id="paint3_linear_364_13889" x1="12.2497" y1="14.5536" x2="16.0651" y2="7.10257" gradientUnits="userSpaceOnUse">
<stop stop-color="#887CAE"/>
<stop offset="1" stop-color="#7A6E9B"/>
</linearGradient>
<linearGradient id="paint4_linear_364_13889" x1="24.1756" y1="12.0048" x2="9.52389" y2="12.0048" gradientUnits="userSpaceOnUse">
<stop stop-color="#B0A0CE"/>
<stop offset="1" stop-color="#887CAE"/>
</linearGradient>
<linearGradient id="paint5_linear_364_13889" x1="13.4782" y1="9.24445" x2="16.5115" y2="12.139" gradientUnits="userSpaceOnUse">
<stop stop-color="#B0A0CE"/>
<stop offset="1" stop-color="#CEC6E2"/>
</linearGradient>
</defs>
</svg>

<svg xmlns="http://www.w3.org/2000/svg" width="24" height="24" fill="none" viewBox="0 0 24 24">
    <path fill="url(#SWISE__a)" d="M3.667 17.778 12.005 22v-8.283l-8.339 4.055z"/>
    <path fill="url(#SWISE__b)" d="m12.006 22 8.327-4.206-8.327-4.077z"/>
    <path fill="url(#SWISE__c)" d="m12.006 13.717 8.328 4.077-3.4-6.466L12 13.722z"/>
    <path fill="url(#SWISE__d)" d="m3.667 17.778 8.338-4.061-4.916-2.4z"/>
    <path fill="url(#SWISE__e)" d="m7.09 11.317 4.91 2.4V2l-4.916 9.317z"/>
    <path fill="url(#SWISE__f)" d="m12.006 13.717 4.928-2.39L12 2v11.722z"/>
    <defs>
        <linearGradient id="SWISE__a" x1="7.186" x2="25.334" y1="4.052" y2="11.676" gradientUnits="userSpaceOnUse">
            <stop stop-color="#8277A6"/>
            <stop offset="1" stop-color="#655880"/>
        </linearGradient>
        <linearGradient id="SWISE__b" x1="2.366" x2="17.993" y1="23.851" y2="4.726" gradientUnits="userSpaceOnUse">
            <stop stop-color="#665A82"/>
            <stop offset=".24" stop-color="#73638D"/>
            <stop offset="1" stop-color="#B4A6D1"/>
        </linearGradient>
        <linearGradient id="SWISE__c" x1="11.611" x2="30.638" y1="16.364" y2="2.694" gradientUnits="userSpaceOnUse">
            <stop stop-color="#B0A0CE"/>
            <stop offset="1" stop-color="#CEC6E2"/>
        </linearGradient>
        <linearGradient id="SWISE__d" x1="12.25" x2="16.065" y1="14.554" y2="7.103" gradientUnits="userSpaceOnUse">
            <stop stop-color="#887CAE"/>
            <stop offset="1" stop-color="#7A6E9B"/>
        </linearGradient>
        <linearGradient id="SWISE__e" x1="24.176" x2="9.524" y1="12.005" y2="12.005" gradientUnits="userSpaceOnUse">
            <stop stop-color="#B0A0CE"/>
            <stop offset="1" stop-color="#887CAE"/>
        </linearGradient>
        <linearGradient id="SWISE__f" x1="13.478" x2="16.512" y1="9.244" y2="12.139" gradientUnits="userSpaceOnUse">
            <stop stop-color="#B0A0CE"/>
            <stop offset="1" stop-color="#CEC6E2"/>
        </linearGradient>
    </defs>
</svg>
